_editor/libs/builder/icons/right-column-layout.svg

<svg viewBox="0 -64 512 512" xmlns="http://www.w3.org/2000/svg"><path d="m62.945-1.63h394.855v394.855h-394.855v-376.908zm24.678 22.434v349.002h167.337v-349.002zm190.698 0v351.183h156.081v-351.183z" fill="#4d4d4d" stroke-width="1.12175"/><path d="m278.32 196.395v-175.59h156.082v351.182h-156.081z" fill="#808080" fill-opacity=".270588" stroke-width="1.22575"/></svg>

<svg viewBox="0 -64 512 512" xmlns="http://www.w3.org/2000/svg"><path d="M62.945-1.63H457.8v394.855H62.945V16.317Zm24.678 22.434v349.002H254.96V20.804Zm190.698 0v351.183h156.081V20.804Z" fill="#4d4d4d" style="stroke-width:1.12175"/><path d="M278.32 196.395V20.805h156.082v351.182H278.321z" fill="gray" fill-opacity=".329" style="fill:gray;fill-opacity:.27058825;stroke-width:1.22575"/></svg>
